X:1489
T:Denbeys March
O:england
R:March
M:C|
A:Westmorland
N:P31 1/2
K:D
A/2|d>d (3dfd e>e (3ege|f>agf e3f|\
g>ge>g f>fd>f|e2ee e2fg|\
afde f2e2|d2d>dd2:|
|:A2|e2ee e2d>e|f2ff f2ef|\
P:seems to have been left unfinished ...


